mate/scalable/animations/za.svg

<?xml version="1.0" encoding="UTF-8" standalone="no"?>
<!-- Created with Sodipodi ("http://www.sodipodi.com/") -->

<!-- Creative Commons Public Domain -->

<!--
<rdf:RDF xmlns="http://web.resource.org/cc/"
xmlns:dc="http://purl.org/dc/elements/1.1/"
xmlns:rdf="http://www.w3.org/1999/02/22-rdf-syntax-ns#">
  <Work rdf:about="">
    <dc:title>SVG graphic of South African Flag</dc:title>
                                                                                                 
    <dc:rights>
      <Agent>
        <dc:title>Farrel Lifson</dc:title>
      </Agent>
    </dc:rights>
                                                                                                 
    <license
    rdf:resource="http://web.resource.org/cc/PublicDomain" />
  </Work>
                                                                                                 
  <License rdf:about="http://web.resource.org/cc/PublicDomain">
    <permits
    rdf:resource="http://web.resource.org/cc/Reproduction" />
                                                                                                 
    <permits
    rdf:resource="http://web.resource.org/cc/Distribution" />
                                                                                                 
    <permits
    rdf:resource="http://web.resource.org/cc/DerivativeWorks" />
  </License>
</rdf:RDF>
-->

<svg
   xmlns:dc="http://purl.org/dc/elements/1.1/"
   xmlns:cc="http://creativecommons.org/ns#"
   xmlns:rdf="http://www.w3.org/1999/02/22-rdf-syntax-ns#"
   xmlns:svg="http://www.w3.org/2000/svg"
   xmlns="http://www.w3.org/2000/svg"
   xmlns:sodipodi="http://sodipodi.sourceforge.net/DTD/sodipodi-0.dtd"
   xmlns:inkscape="http://www.inkscape.org/namespaces/inkscape"
   version="1"
   x="0.00000000"
   y="0.00000000"
   width="640"
   height="480"
   id="svg548"
   inkscape:version="0.48.1 r9760"
   sodipodi:docname="za.svg">
  <sodipodi:namedview
     pagecolor="#ffffff"
     bordercolor="#666666"
     borderopacity="1"
     objecttolerance="10"
     gridtolerance="10"
     guidetolerance="10"
     inkscape:pageopacity="1"
     inkscape:pageshadow="2"
     inkscape:window-width="1280"
     inkscape:window-height="746"
     id="namedview3792"
     showgrid="false"
     inkscape:zoom="0.98242188"
     inkscape:cx="126.72763"
     inkscape:cy="256"
     inkscape:window-x="0"
     inkscape:window-y="24"
     inkscape:window-maximized="1"
     inkscape:current-layer="svg548"
     showguides="false"
     inkscape:snap-from-guide="false" />
  <metadata
     id="metadata3794">
    <rdf:RDF>
      <cc:Work
         rdf:about="">
        <dc:format>image/svg+xml</dc:format>
        <dc:type
           rdf:resource="http://purl.org/dc/dcmitype/StillImage" />
      </cc:Work>
    </rdf:RDF>
  </metadata>
  <defs
     id="defs550">
    <clipPath
       clipPathUnits="userSpaceOnUse"
       id="clipPath4085">
      <rect
         id="rect4087"
         height="499.60632"
         x="70.133392"
         style="fill:#000000;fill-opacity:0.67000002;stroke:none"
         width="499.60632"
         y="-1.2807692e-05" />
    </clipPath>
    <clipPath
       clipPathUnits="userSpaceOnUse"
       id="clipPath3532">
      <rect
         id="rect3534"
         height="512.01233"
         x="-71.873177"
         style="fill:#000000;fill-opacity:0.67000002;stroke:none"
         width="682.68311"
         y="-0.012254236" />
    </clipPath>
  </defs>
  <g
     transform="matrix(0.93747745,0,0,0.93747745,67.379485,0.01148807)"
     id="flag"
     clip-path="url(#clipPath3532)"
     inkscape:label="#g3460">
    <g
       transform="matrix(2.0478368,0,0,2.0483851,-148.56692,-1592.2445)"
       style="font-size:12px"
       id="g603">
      <path
         inkscape:connector-curvature="0"
         d="m 37.4511,976.386 0,-148.125 110.2779,74.022 -110.2779,74.103 z"
         style="fill-rule:evenodd;stroke-width:1pt"
         id="path581" />
      <path
         inkscape:connector-curvature="0"
         d="m 112.695,1027.27 123.808,-83.306 175.978,0 0,83.306 -299.786,0 z"
         style="fill:#0000cc;fill-rule:evenodd;stroke-width:1pt"
         id="path597" />
      <path
         inkscape:connector-curvature="0"
         d="m 104.74208,777.317 307.73892,0.006 0,83.32 -175.978,0 c 0,0 -130.11092,-84.15 -131.76092,-83.326 z"
         style="fill:#ff0000;fill-rule:evenodd;stroke-width:1pt"
         id="path598"
         sodipodi:nodetypes="ccccc" />
      <path
         inkscape:connector-curvature="0"
         d="m 37.4511,808.573 c 0,0 0,19.688 0,19.688 l 110.2779,74.022 -110.2779,74.103 0,19.687 138.8989,-93.79 -138.8989,-93.71 z"
         style="fill:#ffcc00;fill-rule:evenodd;stroke-width:1pt"
         id="path599" />
      <path
         inkscape:connector-curvature="0"
         d="m 37.4511,808.573 0,-31.25 46.338,0 147.1389,99.531 181.553,0 0,50.899 -181.553,0 -147.1389,99.517 -46.338,0 0,-31.197 138.8989,-93.79 -138.8989,-93.71 z"
         style="fill:#009933;fill-rule:evenodd;stroke-width:1pt"
         id="path600" />
      <path
         inkscape:connector-curvature="0"
         d="m 83.7891,777.323 28.9059,0 123.808,83.32 175.978,0 0,16.211 -181.553,0 -147.1389,-99.531 z"
         style="fill:#ffffff;fill-rule:evenodd;stroke-width:1pt"
         id="path601" />
      <path
         inkscape:connector-curvature="0"
         d="m 83.7891,1027.27 28.9059,0 123.808,-83.306 175.978,0 0,-16.211 -181.553,0 -147.1389,99.517 z"
         style="fill:#ffffff;fill-rule:evenodd;stroke-width:1pt"
         id="path602" />
    </g>
  </g>
</svg>

<?xml version="1.0" encoding="UTF-8" standalone="no"?>
<!-- Created with Sodipodi ("http://www.sodipodi.com/") -->

<svg
   xmlns:dc="http://purl.org/dc/elements/1.1/"
   xmlns:cc="http://creativecommons.org/ns#"
   xmlns:rdf="http://www.w3.org/1999/02/22-rdf-syntax-ns#"
   xmlns:svg="http://www.w3.org/2000/svg"
   xmlns="http://www.w3.org/2000/svg"
   xmlns:sodipodi="http://sodipodi.sourceforge.net/DTD/sodipodi-0.dtd"
   xmlns:inkscape="http://www.inkscape.org/namespaces/inkscape"
   id="svg378"
   height="480"
   width="640"
   version="1"
   y="0"
   x="0"
   sodipodi:docname="za.svg"
   inkscape:version="0.92.0 r">
  <defs
     id="defs10">
    <clipPath
       id="clipPath3133"
       clipPathUnits="userSpaceOnUse">
      <rect
         style="fill-opacity:0.67000002"
         id="rect3135"
         height="512"
         width="682.66998"
         y="7.1053998e-15"
         x="-85.333" />
    </clipPath>
    <clipPath
       id="clipPath3688"
       clipPathUnits="userSpaceOnUse">
      <rect
         style="fill-opacity:0.67000002"
         id="rect3690"
         height="480"
         width="640"
         y="32"
         x="-78.014999" />
    </clipPath>
    <clipPath
       id="clipPath3605"
       clipPathUnits="userSpaceOnUse">
      <rect
         style="fill-opacity:0.67000002"
         id="rect3607"
         height="512"
         width="682.66998"
         y="-1.9137999e-06"
         x="-19.451" />
    </clipPath>
    <clipPath
       id="clipPath4935"
       clipPathUnits="userSpaceOnUse">
      <rect
         style="fill-opacity:0.67000002"
         id="rect4937"
         height="90"
         width="120"
         y="0"
         x="0" />
    </clipPath>
    <clipPath
       id="clipPath5745"
       clipPathUnits="userSpaceOnUse">
      <rect
         style="fill-opacity:0.67000002"
         id="rect5747"
         height="512"
         width="682.66998"
         y="1.25e-05"
         x="-84.948997" />
    </clipPath>
    <clipPath
       id="clipPath8578"
       clipPathUnits="userSpaceOnUse">
      <rect
         style="fill-opacity:0.67000002"
         id="rect8580"
         height="512"
         width="512"
         y="-15.957"
         x="0" />
    </clipPath>
    <clipPath
       id="clipPath3532"
       clipPathUnits="userSpaceOnUse">
      <rect
         style="fill-opacity:0.67000002"
         id="rect3534"
         height="512.01001"
         width="682.67999"
         y="-0.012254"
         x="-71.873001" />
    </clipPath>
  </defs>
  <sodipodi:namedview
     pagecolor="#ffffff"
     bordercolor="#666666"
     borderopacity="1"
     objecttolerance="10"
     gridtolerance="10"
     guidetolerance="10"
     inkscape:pageopacity="0"
     inkscape:pageshadow="2"
     inkscape:window-width="1020"
     inkscape:window-height="1035"
     id="namedview8"
     showgrid="false"
     inkscape:zoom="0.69532167"
     inkscape:cx="301.61105"
     inkscape:cy="217.17176"
     inkscape:window-x="848"
     inkscape:window-y="34"
     inkscape:window-maximized="0"
     inkscape:current-layer="svg378" />
  <metadata
     id="metadata4346">
    <rdf:RDF>
      <cc:Work
         rdf:about="">
        <dc:format>image/svg+xml</dc:format>
        <dc:type
           rdf:resource="http://purl.org/dc/dcmitype/StillImage" />
        <dc:title></dc:title>
      </cc:Work>
    </rdf:RDF>
  </metadata>
  <g
     id="flag"
     clip-path="url(#clipPath3532)"
     transform="matrix(0.93748,0,0,0.93748,67.379,0.01149171)">
    <g
       style="fill-rule:evenodd;stroke-width:1.00000003pt"
       id="g603"
       transform="matrix(2.0478,0,0,2.0484,-148.57,-1592.2)">
      <path
         inkscape:connector-curvature="0"
         id="path581"
         d="M 37.451,976.39 V 828.27 l 110.28,74.022 -110.28,74.103 z" />
      <path
         style="fill:#0000cc"
         inkscape:connector-curvature="0"
         id="path597"
         d="M 112.7,1027.3 236.51,943.994 H 412.49 V 1027.3 Z" />
      <path
         style="fill:#ff0000"
         inkscape:connector-curvature="0"
         id="path598"
         d="m 104.74,777.32 307.74,0.006 v 83.32 H 236.5 c 0,0 -130.11,-84.15 -131.76,-83.326 z" />
      <path
         style="fill:#ffcc00"
         inkscape:connector-curvature="0"
         id="path599"
         d="m 37.451,808.57 v 19.688 l 110.28,74.022 -110.28,74.103 v 19.687 l 138.9,-93.79 z" />
      <path
         style="fill:#009933"
         inkscape:connector-curvature="0"
         id="path600"
         d="m 37.451,808.57 v -31.25 h 46.338 l 147.14,99.531 h 181.55 v 50.899 h -181.55 l -147.14,99.517 H 37.451 V 996.07 l 138.9,-93.79 z" />
      <path
         style="fill:#ffffff"
         inkscape:connector-curvature="0"
         id="path601"
         d="m 83.789,777.32 h 28.906 l 123.81,83.32 h 175.98 v 16.211 H 230.935 L 83.795,777.32 Z" />
      <path
         style="fill:#ffffff"
         inkscape:connector-curvature="0"
         id="path602"
         d="m 83.789,1027.3 h 28.906 l 123.81,-83.306 h 175.98 V 927.783 H 230.935 L 83.795,1027.3 Z" />
    </g>
  </g>
</svg>
